X:22
T:22 The Bugle Horn
C:Welch MS
I:abc2nwc
M:2/4
L:1/16
K:D
(3fga|a2f2 f2d2|d4A2A2|d2d2e2e2|fefg f2  (3fga|
a2f2f2d2|d4A2d2|e2e2 edef|d6:|
f2|d4A2f2|d4A2f2|d2f2d2f2|d4A2  (3fga|
a2f2f2d2|d4A2d2|e2e2 edef|d6:|

